T: Bonnie Scotland
M: 4/4
L: 1/8
K: Gmaj
G2 G>A B<d d2 |[1 (3efg f>a g>ed>B :|[2 (3efg (3fga g2 ||~ to finish ~ | (3efg f>a g>ed>B || G4 |]
